X: 43421
T: Y Derwydd
R: jig
M: 6/8
K: Dmajor
A|:FGA AFA|BF/G/B AFD|Bcd efg|efd cBA|
Fc/A/F AF/G/A|BGB A3|Bcd efg|ABc d3:|
|:F2A AFA|BF/G/B AFD|Bcd efg|efd cBA|
F3 AFA|BGB AF/G/A|Bcd efg|ABc d2A:|
|:f3 afa|g3 efg|fdf f3|efd cBA|
AF/G/A D3|G3 EFG|FED cde|dAF D3:|
|:faa faa|geg gag|f3 d2f|efd cBA|
F3 AF/G/A|G3 EFG|fed cde|dAF D3:|

